X:6730
T:Waltz from Lolland, Falster
M:3/4
O:Denmark
R:Waltz
Z:Richard Robinson 
%%TUNEURL: http://www.leeds.ac.uk/music/Info/RRTuneBk/gettune/00000910.html
%%ID:00000910
K:G
[B,2D2] | [B,D][DG] [DG][GB] [GB][Bd] | \
[Bd][Ac] [GB][Ac] [F2A2] |\
[DF][FA] [FA][Ac] [Ac][ce] | \
[ce][Bd] [A^c][Bd] [G2B2] |\
[DB][Bd] [Bd][eg] [eg][df] |\
[CA][Ac] [Ac][ce] [ce][Ad] |\
[DF][FA] [FA][Ac] [Ec][DB] | \
[B,4G4] :|
K:D
|: [DF][EG] |\
[F4A4] [DG][FA] | [DF][FA] [A,D][DF] [FA][Ad] |\
[df][ce] [ce][Bd] [Bd][Ac] |\
[Ac][GB] [GB][FA] [FA][DF] |\
[E4A4] [CA][EG] | [DF][B,G] [CE][EA] [Ac][ce] |\
[e2g2] [df][ce] [GB][Ec] | [F4d4] :|
K:G
|: B2 |\
[Dc][Dc] [D2c2] a2 | [DB][DB] g2 |\
[Af][ce] [Ac][FA] [A2c2] | \
[Ge][Bd] [GB][DG] [G2B2] |\
[Dc][Dc] [D2c2] a2 | [DB][DB] [D2B2] g2 |\
[Af][Ge] [Fd][DA] [Ec][DB] | [B,4G4] :|
